logos/neuralink.svg

<svg width="56" height="35" viewBox="0 0 56 35" fill="none" xmlns="http://www.w3.org/2000/svg" class="_logo_u8arg_25"><path fill="black" fill-rule="evenodd" clip-rule="evenodd" d="M30.8777 22.4886H0.705078L22.5011 2.28693C24.3585 0.565492 27.0293 -0.000275522 29.47 0.809903C31.9102 1.62058 33.6439 3.6498 33.994 6.10498L37.476 30.5019C37.5803 31.2306 38.0767 31.8049 38.8036 32.0367C39.5305 32.2696 40.2868 32.0946 40.8255 31.572L50.1712 22.4886H39.4676L39.1096 20.2688H55.7051L42.4717 33.131C41.6499 33.9302 40.5593 34.3566 39.4367 34.3566C38.9823 34.3566 38.5221 34.2862 38.073 34.1429C36.5143 33.6455 35.4074 32.3656 35.1842 30.8031L31.7021 6.40672C31.4673 4.75921 30.3499 3.45166 28.7127 2.90802C27.0759 2.36337 25.3548 2.72899 24.108 3.88365L6.42923 20.2688H30.5522L30.8777 22.4886Z"></path></svg>

<svg width="56" height="35" fill="none" xmlns="http://www.w3.org/2000/svg" class="_logo_u8arg_25"><path fill="#000" fill-rule="evenodd" clip-rule="evenodd" d="M30.878 22.489H.705L22.501 2.287C24.358.565 27.03 0 29.47.81c2.44.81 4.174 2.84 4.524 5.295l3.482 24.397c.104.729.6 1.303 1.328 1.535a1.989 1.989 0 0 0 2.021-.465l9.346-9.083H39.468l-.358-2.22h16.595L42.472 33.13a4.343 4.343 0 0 1-3.035 1.226c-.455 0-.915-.07-1.364-.214-1.559-.498-2.666-1.777-2.889-3.34L31.702 6.407c-.235-1.648-1.352-2.955-2.99-3.499-1.636-.545-3.357-.179-4.604.976L6.429 20.269h24.123l.326 2.22z"/></svg>
